X: 1
T: Growling Dogs
M: 4/4
L: 1/8
R: reel
K: Dmix
|:&quot;D&quot;A,2DEF2D2|FGAB&quot;C&quot;c4|&quot;G&quot;dB c/2B/A GBAG|
&quot;D&quot;AFDB,&quot;C&quot;C2-CB,|&quot;D&quot;A,2DEF2D2|FGAB&quot;C&quot;c2Bc|
&quot;G&quot;dB c/2B/A GBAF|[1&quot;D&quot;D8:|[2&quot;D&quot;D6(3ABc||
|:d2dB&quot;C&quot;c2Bc|&quot;G&quot;dBGB&quot;D&quot;A2(3ABc|&quot;G&quot;dB c/2B/A GBAG|
&quot;D&quot;AFDB,&quot;C&quot;C2-CB,|&quot;D&quot;A,2DEF2D2|FGAB&quot;C&quot;c2Bc|
&quot;G&quot;dB c/2B/A GBAF|[1&quot;D&quot;D6(3ABc:|[2&quot;D&quot;D8||
